public/icons/recovered.svg

<svg height="118" viewBox="0 0 131 118" width="131" xmlns="http://www.w3.org/2000/svg"><g fill="none" fill-rule="evenodd" stroke="#fff" stroke-width="5" transform="translate(3 2)"><path d="m114.86 10.676c-13.59-13.583-35.61-13.583-49.19 0l-3.05 3.049-3.05-3.049c-13.58-13.583-35.61-13.583-49.19 0s-13.58 35.606 0 49.19l3.05 3.048 49.19 49.19 49.19-49.19 3.05-3.048c13.58-13.584 13.58-35.607 0-49.19z"/><path d="m93.51 17.196s18.66 6.22 14.77 25.658z"/></g></svg>

<svg width="131px" height="118px" viewBox="0 0 131 118" version="1.1" xmlns="http://www.w3.org/2000/svg" xmlns:xlink="http://www.w3.org/1999/xlink">
    <g id="Page-1" stroke="none" stroke-width="1" fill="none" fill-rule="evenodd">
        <g id="recovered" transform="translate(3.000000, 2.000000)" stroke="#FFFFFF" stroke-width="5">
            <path d="M114.86,10.676 L114.86,10.676 C101.27,-2.907 79.25,-2.907 65.67,10.676 L62.62,13.725 L59.57,10.676 C45.99,-2.907 23.96,-2.907 10.38,10.676 C-3.2,24.259 -3.2,46.282 10.38,59.866 L13.43,62.914 L62.62,112.104 L111.81,62.914 L114.86,59.866 C128.44,46.282 128.44,24.259 114.86,10.676 Z" id="Path"></path>
            <path d="M93.51,17.196 C93.51,17.196 112.17,23.416 108.28,42.854 L93.51,17.196 Z" id="Path"></path>
        </g>
    </g>
</svg>
